icons/svg/folder.svg

<svg width="24" height="24" viewBox="0 0 24 24" fill="none" xmlns="http://www.w3.org/2000/svg">
<path d="M2.75 8.62311V16.0019C2.75 18.211 4.54086 20.0019 6.75 20.0019H17.25C19.4591 20.0019 21.25 18.211 21.25 16.0019V10.3114C21.25 8.10198 19.4586 6.31098 17.2492 6.31144L12 6.31254M2.75 8.62311V6.99811C2.75 5.34125 4.09315 3.99811 5.75 3.99811H8.65004C9.31308 3.99811 9.94896 4.2615 10.4178 4.73034L12 6.31254M2.75 8.62311H8.65389C9.31693 8.62311 9.95282 8.35972 10.4217 7.89088L12 6.31254" stroke="currentColor" stroke-width="1.5" stroke-linejoin="round"/>
</svg>

<svg xmlns="http://www.w3.org/2000/svg" width="24" height="24" fill="none" viewBox="0 0 24 24"><path stroke="currentColor" stroke-linejoin="round" stroke-width="1.5" d="M2.75 8.623v7.379a4 4 0 0 0 4 4h10.5a4 4 0 0 0 4-4v-5.69a4 4 0 0 0-4-4H12M2.75 8.624V6.998a3 3 0 0 1 3-3h2.9a2.5 2.5 0 0 1 1.768.732L12 6.313m-9.25 2.31h5.904a2.5 2.5 0 0 0 1.768-.732L12 6.313"/></svg>
